icons/image-line.svg

<svg xmlns="http://www.w3.org/2000/svg" width="24" height="24" fill="none"><g clip-path="url(#a)"><g><path fill="#121212" d="M4.828 21L4.808 21.02L4.787 21H2.992C2.72881 20.9997 2.4765 20.895 2.29049 20.7088C2.10448 20.5226 2 20.2702 2 20.007V3.993C2.00183 3.73038 2.1069 3.47902 2.29251 3.29322C2.47813 3.10742 2.72938 3.00209 2.992 3H21.008C21.556 3 22 3.445 22 3.993V20.007C21.9982 20.2696 21.8931 20.521 21.7075 20.7068C21.5219 20.8926 21.2706 20.9979 21.008 21H4.828ZM20 15V5H4V19L14 9L20 15ZM20 17.828L14 11.828L6.828 19H20V17.828ZM8 11C7.46957 11 6.96086 10.7893 6.58579 10.4142C6.21071 10.0391 6 9.53043 6 9C6 8.46957 6.21071 7.96086 6.58579 7.58579C6.96086 7.21071 7.46957 7 8 7C8.53043 7 9.03914 7.21071 9.41421 7.58579C9.78929 7.96086 10 8.46957 10 9C10 9.53043 9.78929 10.0391 9.41421 10.4142C9.03914 10.7893 8.53043 11 8 11Z"/></g></g><defs><clipPath id="a"><rect width="24" height="24" fill="white"/></clipPath></defs></svg>

<svg width="24" height="24" fill="none" xmlns="http://www.w3.org/2000/svg"><g clip-path="url(#a)"><path d="m4.828 21-.02.02-.021-.02H2.992A.993.993 0 0 1 2 20.007V3.993A1 1 0 0 1 2.992 3h18.016c.548 0 .992.445.992.993v16.014a1 1 0 0 1-.992.993H4.828ZM20 15V5H4v14L14 9l6 6Zm0 2.828-6-6L6.828 19H20v-1.172ZM8 11a2 2 0 1 1 0-4 2 2 0 0 1 0 4Z" /></g><defs><clipPath id="a"><path fill="#fff" d="M0 0h24v24H0z"/></clipPath></defs></svg>
